images/icons/links/telegramm.svg

<svg width="30" height="30" viewBox="0 0 30 30" fill="none" xmlns="http://www.w3.org/2000/svg">
<circle cx="15" cy="15" r="15" fill="#2F89CE"/>
<path d="M7.01303 15.2806L10.4616 16.5665L11.8059 20.8918C11.8644 21.184 12.2151 21.2425 12.4489 21.0671L14.3778 19.489C14.5531 19.3136 14.8454 19.3136 15.0792 19.489L18.5277 22.0023C18.7615 22.1777 19.1122 22.0608 19.1707 21.7685L21.7425 9.49399C21.8009 9.20174 21.5087 8.90949 21.2164 9.02639L7.01303 14.5207C6.66232 14.6376 6.66232 15.1637 7.01303 15.2806ZM11.6306 15.9235L18.4108 11.7735C18.5277 11.7151 18.6446 11.8905 18.5277 11.9489L12.975 17.151C12.7996 17.3263 12.6242 17.5601 12.6242 17.8524L12.4489 19.2552C12.4489 19.4305 12.1566 19.489 12.0982 19.2552L11.3968 16.6834C11.2214 16.3911 11.3384 16.0404 11.6306 15.9235Z" fill="white"/>
</svg>

<svg width="30" height="30" fill="none" xmlns="http://www.w3.org/2000/svg"><circle cx="15" cy="15" r="15" fill="#2F89CE"/><path d="M7.013 15.28l3.449 1.287 1.344 4.325c.058.292.41.35.643.175l1.929-1.578c.175-.175.467-.175.701 0l3.449 2.513c.234.176.584.059.643-.233l2.572-12.275c.058-.292-.234-.585-.527-.468L7.013 14.521c-.35.117-.35.643 0 .76zm4.618.644l6.78-4.15c.117-.059.234.117.117.175l-5.553 5.202c-.175.175-.35.41-.35.701l-.176 1.403c0 .175-.292.234-.35 0l-.702-2.572c-.176-.292-.059-.643.234-.76z" fill="#fff"/></svg>
